X: 18745
T: Ievan Polkka
R: polka
M: 2/4
K: Bminor
FB Bc|dB Bd|cA Ac|d/c/B/A/ BA|
FB Bc|dB cd|ef/e/ dc|BA B2:|
f2df|ec cd|ef/e/ dc|Bc de|
f2df|ec cd|ef/e/ dc|BA B2:|

